source/images/icons/icon-editorial/petition.svg

<?xml version="1.0" encoding="UTF-8"?>
<svg width="80px" height="80px" viewBox="0 0 80 80" version="1.1" xmlns="http://www.w3.org/2000/svg" xmlns:xlink="http://www.w3.org/1999/xlink">
    <!-- Generator: Sketch 55.2 (78181) - https://sketchapp.com -->
    <title>Illustrative Icons/Petition</title>
    <desc>Created with Sketch.</desc>
    <g id="Illustrative-Icons/Petition" stroke="none" stroke-width="1" fill="none" fill-rule="evenodd">
        <path d="M73.9794043,26.6214359 C74.8626574,27.0275326 75.2457627,28.0639884 74.8352781,28.9369231 L64.4112657,51.1397949 L64.4112657,68.7692308 C64.4112657,71.6581048 62.0410323,74 59.1172015,74 L22.0587522,74 C21.0841419,74 20.2940642,73.2193682 20.2940642,72.2564103 C20.2940642,71.2934523 21.0841419,70.5128205 22.0587522,70.5128205 L59.1172015,70.5128205 C60.0918117,70.5128205 60.8818896,69.7321887 60.8818896,68.7692308 L60.8818896,57.0052308 L55.9919389,59.8786667 C55.4895774,60.1750346 54.8712057,60.2061137 54.3409999,59.9616425 C53.810794,59.7171714 53.4376998,59.2289399 53.3449069,58.6581538 L52.3531522,52.4684103 C52.298671,52.1264754 52.34843,51.776256 52.4960919,51.462359 L60.8818896,33.6010256 L60.8818896,19.9487179 C60.8818896,18.9857599 60.0918117,18.2051282 59.1172015,18.2051282 L53.8231373,18.2051282 L53.8231373,19.9487179 C53.8231373,20.911676 53.0330595,21.6923077 52.0584493,21.6923077 L27.3528164,21.6923077 C26.3782061,21.6923077 25.5881284,20.911676 25.5881284,19.9487179 L25.5881284,18.2051282 L20.2940642,18.2051282 C19.3194539,18.2051282 18.5293761,18.9857599 18.5293761,19.9487179 L18.5293761,66.8512821 C18.5293761,67.81424 17.7392984,68.5948718 16.7646881,68.5948718 C15.7900778,68.5948718 15,67.81424 15,66.8512821 L15,19.9487179 C15,17.0598439 17.3702333,14.7179487 20.2940642,14.7179487 L25.5881284,14.7179487 L25.5881284,12.974359 C25.5881284,12.0114009 26.3782061,11.2307692 27.3528164,11.2307692 L31.5033627,11.2307692 C32.4704118,9.37035897 34.9039166,6 39.7056328,6 C44.5073491,6 46.9408539,9.37035897 47.9079029,11.2307692 L52.0584493,11.2307692 C53.0330595,11.2307692 53.8231373,12.0114009 53.8231373,12.974359 L53.8231373,14.7179487 L59.1172015,14.7179487 C62.0410323,14.7179487 64.4112657,17.0598439 64.4112657,19.9487179 L64.4112657,26.0844103 L65.1577287,24.4942564 C65.3547791,24.0744052 65.7126824,23.7491815 66.1525882,23.5902363 C66.5924939,23.4312912 67.0783079,23.4516659 67.5029992,23.6468718 L73.9794043,26.6214359 Z M50.2937612,18.2051282 L50.2937612,14.7231795 L46.7643851,14.7231795 C46.7079151,14.7231795 46.651445,14.7231795 46.5967397,14.7231795 L46.5596813,14.7231795 C46.5190934,14.7179487 46.4785056,14.7127179 46.4379178,14.704 L46.3867418,14.6935385 C46.3498131,14.6860925 46.313295,14.6767811 46.2773312,14.665641 L46.2296846,14.6534359 C46.1838027,14.6394872 46.1379208,14.6220513 46.0920389,14.6046154 L46.0355689,14.5784615 L45.9508639,14.538359 L45.8943939,14.5069744 C45.8643942,14.4912821 45.8361592,14.4738462 45.8079242,14.4564103 L45.763807,14.4267692 C45.6770106,14.3689071 45.5960501,14.3029279 45.5220447,14.2297436 L45.5043978,14.2123077 C45.4725641,14.1808466 45.4425183,14.1476676 45.4143987,14.1129231 C45.4062273,14.1040572 45.3985681,14.0947433 45.3914578,14.0850256 C45.3649874,14.053641 45.3402818,14.0205128 45.3155762,13.9873846 C45.30896,13.9756784 45.3012815,13.9645901 45.2926352,13.9542564 C45.2696943,13.9193846 45.248518,13.8845128 45.2273418,13.8461538 L45.2096949,13.8165128 C45.1849893,13.7729231 45.163813,13.7275897 45.1426368,13.6805128 L45.1179311,13.6177436 C45.1108724,13.5950769 45.0932255,13.5741538 45.0932255,13.5514872 C45.027932,13.3631795 43.6179463,9.50461538 39.7056328,9.50461538 C35.73332,9.50461538 34.3339224,13.5026667 34.3215696,13.5427692 L34.3056874,13.5811282 C34.2915699,13.6194872 34.2703936,13.6735385 34.2615702,13.6944615 C34.2527467,13.7153846 34.245688,13.7258462 34.2315705,13.7554872 C34.217453,13.7851282 34.1998061,13.82 34.1856886,13.8444103 C34.1715711,13.8688205 34.1539242,13.8949744 34.1398067,13.917641 C34.1256892,13.9403077 34.1133364,13.9594872 34.0956895,13.985641 C34.0780426,14.0117949 34.0568664,14.0379487 34.0374548,14.062359 L33.9933376,14.1181538 L33.9262794,14.1913846 L33.8768682,14.2402051 L33.8062807,14.3047179 L33.7462813,14.3535385 C33.7243988,14.3717559 33.7014155,14.3886417 33.6774584,14.4041026 L33.6068709,14.4546667 L33.5415774,14.4930256 L33.4568724,14.5401026 L33.3951083,14.5697436 L33.3015799,14.6098462 L33.2362864,14.6342564 L33.1409933,14.6638974 C33.1162876,14.6726154 33.0898173,14.6848205 33.0651117,14.6848205 L32.978642,14.704 L32.8798194,14.7179487 L32.8109966,14.7179487 L32.6892331,14.7179487 L29.1175045,14.7179487 L29.1175045,18.2051282 L50.2937612,18.2051282 Z M59.21073,53.9295385 L70.8912002,29.0502564 L67.6159392,27.5455385 L55.9231161,52.4492308 L56.4242875,55.5702564 L59.21073,53.9295385 Z M17,74 C15.8954305,74 15,73.3284271 15,72.5 C15,71.6715729 15.8954305,71 17,71 C18.1045695,71 19,71.6715729 19,72.5 C19,73.3284271 18.1045695,74 17,74 Z" id="Combined-Shape" fill="#ADB5BD"></path>
    </g>
</svg>

<svg width="80" height="80">
    <title>
        Illustrative Icons/Petition
    </title>
    <path d="M73.98 26.621a1.735 1.735 0 0 1 .855 2.316L64.411 51.14v17.63c0 2.888-2.37 5.23-5.294 5.23H22.06c-.975 0-1.765-.78-1.765-1.744 0-.963.79-1.743 1.765-1.743h37.058c.975 0 1.765-.78 1.765-1.744V57.005l-4.89 2.874a1.783 1.783 0 0 1-1.651.083 1.746 1.746 0 0 1-.996-1.304l-.992-6.19a1.725 1.725 0 0 1 .143-1.006l8.386-17.861V19.949c0-.963-.79-1.744-1.765-1.744h-5.294v1.744c0 .963-.79 1.743-1.765 1.743H27.353c-.975 0-1.765-.78-1.765-1.743v-1.744h-5.294c-.975 0-1.765.78-1.765 1.744V66.85c0 .963-.79 1.744-1.764 1.744-.975 0-1.765-.78-1.765-1.744V19.95c0-2.89 2.37-5.231 5.294-5.231h5.294v-1.744c0-.963.79-1.743 1.765-1.743h4.15C32.47 9.37 34.903 6 39.706 6c4.801 0 7.235 3.37 8.202 5.23h4.15c.975 0 1.765.781 1.765 1.744v1.744h5.294c2.924 0 5.294 2.342 5.294 5.23v6.136l.747-1.59c.197-.42.555-.745.995-.904.44-.159.925-.138 1.35.057l6.476 2.974zm-23.686-8.416v-3.482H46.56a1.471 1.471 0 0 1-.122-.019l-.051-.01a1.114 1.114 0 0 1-.11-.028l-.047-.013c-.046-.014-.092-.03-.138-.048l-.056-.027-.085-.04-.057-.031a1.396 1.396 0 0 1-.086-.05l-.044-.03a1.628 1.628 0 0 1-.242-.197l-.018-.018a1.21 1.21 0 0 1-.113-.127c-.026-.031-.05-.064-.075-.098a1.605 1.605 0 0 1-.088-.141l-.018-.03a1.629 1.629 0 0 1-.067-.135l-.025-.063c-.007-.023-.025-.044-.025-.067-.065-.188-1.475-4.046-5.387-4.046-3.973 0-5.372 3.998-5.384 4.038l-.016.038a3.499 3.499 0 0 1-.044.113l-.03.061a1.39 1.39 0 0 1-.046.09l-.046.073a2.057 2.057 0 0 1-.044.068c-.018.026-.04.052-.059.076l-.044.056-.067.073-.05.05-.07.064-.06.049a.705.705 0 0 1-.069.05l-.07.05-.065.039-.085.047-.062.03-.093.04-.066.024-.095.03c-.025.009-.051.02-.076.02l-.086.02-.1.014h-3.761v3.487h21.176zM59.21 53.93l11.68-24.88-3.275-1.504-11.693 24.903.501 3.121 2.787-1.64zM17 74c-1.105 0-2-.672-2-1.5s.895-1.5 2-1.5 2 .672 2 1.5-.895 1.5-2 1.5z" fill="#ADB5BD" fill-rule="evenodd"/>
</svg>
